X: 1
T: Dove On The Gate, The
M: 4/4
L: 1/8
R: reel
K: Edor
GA|BE~E2 BEdE|BE~E2 DEFA|BE~E2 BEdE|BAFE DEFA|
BE~E2 BEdE|BE~E2 DEFA|GB~B2 dedB|AFDF E2:|:
GA|Be~e2 Bg~g2|edef gfed|Adcd ~f3e|dfaf gfed|
Be~e2 Bg~g2|edef gfga|bf~f2 gfed|Beed e2:|
